X:1
T: Mr. Muir MacKenzie's Favourite
C:Charles Sharpe
R:Strathspey
Q: 128
K:D
M:4/4
L:1/16
|:f2|d4 A3G FD3 D2EF|G3F E3D CA,3 B3c|d3e d3B A3F G3B|AF3 E3G FD3 D2f2|
d4 A3G FD3 D2EF|G3F E3D CA,3 B3c|d3e d3B A3F G3B|AF3 E3G FD3 D2fg|
a3b a3g f3e fd3|g3f e3d c3B cA3|a3b a3g f3e fd3|g3e a3f d4 d2fg|
a3b a3g fd3 e3f|g3f e3d cA3 B3c|d3e fd3 e3f ge3|fa3 c3e d4 d2:|
